!!!SOCIAL_FUNCTION:	songs connected with legends
!!!PDT:	1929
!!!OTL: No_15_The_World_Would_Burn_Without_the_Rain.krn
!!!REG: Southwest
!!!LANG: Non-Tone
!!!LING_GROUP: Uto-Aztecan
**kern
*staff1
=1-
*clefF4
*k[f#]
*M3/4
4.B\
8A#\
4B\
=2
2E\
4r
=3
4B\
4E\
4E\
=4
4.F#\
8E\
8F#\L
8D\J
=5
8D/L
[8BB/J
4BB/]
8D/L
8BB/J
=6
2BB/
4r
=7
2E\
4E\
=8||
*M2/4
2D\
=9
2E\
=10
4.E\
8D\
=11||
*M3/4
4E\
2E\
=12||
*M2/4
2E\
=13||
*M3/4
4.B\
8A#\
4B\
=14
2E\
4r
=15
4B\
4E\
4E\
=16
4.F#\
8E\
8F#\L
8D\J
=17
8D/L
[8BB/J
4BB/]
8D/L
8BB/J
=18
2BB/
4r
=19
2E\
4E\
=20||
*M2/4
2D\
=21
2E\
=22
4.E\
8D\
=23||
*M3/4
4E\
[2E\
=24||
*M2/4
4E\]
4BB/
=25
4.E\
8D\
=26
4.E\
8D\
=27
8E/L
8C/J
8C/L
[8AA/J
=28
4AA/]
8E\L
8D\J
=29||
*M3/4
2E\
8D/L
8BB/J
=30||
*M2/4
2BB/
=31
8D/L
8BB/J
4r
=32||
*M3/4
2E\
4E\
=33||
*M2/4
2D\
=34
2E\
=35
4.E\
8D\
=36||
*M3/4
4E\
2E\
=37
2.E\
==
*-
